images/cause__list__image-4.svg

<svg width="72" height="72" viewBox="0 0 72 72" fill="none" xmlns="http://www.w3.org/2000/svg">
<circle cx="36" cy="36" r="36" fill="url(#paint0_linear_0_3459)"/>
<path fill-rule="evenodd" clip-rule="evenodd" d="M55.4141 35.4141H45.9798V34.0809H48.5252C48.8488 34.0809 49.1112 33.8186 49.1112 33.495C49.1112 33.1714 48.8488 32.9091 48.5252 32.9091H45.9798V31.5759H47.747C48.4054 31.5759 49.0244 31.3195 49.4898 30.854L53.3434 27.0004C53.5945 27.1255 53.8729 27.192 54.1616 27.192C54.6527 27.192 55.1144 27.0008 55.4616 26.6536C55.8089 26.3063 56.0002 25.8447 56.0002 25.3536C56.0002 24.8625 55.8089 24.4009 55.4616 24.0536C55.1145 23.7063 54.6527 23.5151 54.1616 23.5151C53.6705 23.5151 53.2089 23.7063 52.8616 24.0535C52.5144 24.4008 52.3231 24.8624 52.3231 25.3535C52.3231 25.6423 52.3897 25.9206 52.5148 26.1717L48.6612 30.0253C48.417 30.2695 48.0923 30.404 47.747 30.404H45.9798V29.1112C45.9798 27.4068 44.5931 26.0202 42.8888 26.0202H41.596V20.8331C42.3232 20.5879 42.8485 19.8998 42.8485 19.0909C42.8485 18.0772 42.0238 17.2525 41.0101 17.2525C39.9964 17.2525 39.1716 18.0773 39.1716 19.0909C39.1716 19.8998 39.697 20.5878 40.4241 20.8331V26.0202H39.091V23.4748C39.091 23.1512 38.8287 22.8888 38.5051 22.8888C38.1815 22.8888 37.9191 23.1512 37.9191 23.4748V26.0202H36.5859V16.5859C36.5859 16.2623 36.3236 16 36 16C35.6764 16 35.4141 16.2623 35.4141 16.5859V26.0202H34.0809V23.4748C34.0809 23.1512 33.8186 22.8888 33.495 22.8888C33.1714 22.8888 32.9091 23.1512 32.9091 23.4748V26.0202H31.5759V24.253C31.5759 23.5947 31.3195 22.9757 30.854 22.5102L26.9991 18.6553C27.3396 17.9677 27.2255 17.1104 26.6537 16.5385C25.9368 15.8217 24.7705 15.8218 24.0537 16.5385C23.3369 17.2553 23.3369 18.4216 24.0537 19.1385C24.4121 19.4969 24.8829 19.6761 25.3537 19.6761C25.634 19.6761 25.9138 19.611 26.1705 19.4839L30.0254 23.3389C30.2696 23.583 30.4041 23.9077 30.4041 24.253V26.0202H29.1112C28.8499 26.0202 28.59 26.053 28.3387 26.1176C28.0254 26.1982 27.8367 26.5177 27.9173 26.8311C27.998 27.1445 28.3175 27.3332 28.6309 27.2525C28.7867 27.2124 28.9483 27.192 29.1112 27.192H42.8888C43.947 27.192 44.8079 28.053 44.8079 29.1111V42.8888C44.8079 43.0516 44.7876 43.213 44.7476 43.3687C44.667 43.6822 44.8558 44.0016 45.1691 44.0821C45.218 44.0947 45.2671 44.1007 45.3155 44.1007C45.5765 44.1007 45.8145 43.925 45.8825 43.6605C45.947 43.4095 45.9798 43.1498 45.9798 42.8888V41.5959H51.1668C51.412 42.3231 52.1001 42.8484 52.909 42.8484C53.9227 42.8484 54.7474 42.0238 54.7474 41.01C54.7474 39.9963 53.9227 39.1716 52.909 39.1716C52.1001 39.1716 51.4121 39.6969 51.1668 40.4241H45.9798V39.0909H48.5252C48.8488 39.0909 49.1111 38.8285 49.1111 38.5049C49.1111 38.1813 48.8488 37.919 48.5252 37.919H45.9798V36.5859H55.4141C55.7377 36.5859 56 36.3236 56 36C56 35.6764 55.7377 35.4141 55.4141 35.4141ZM53.6902 24.8823C53.8162 24.7563 53.9835 24.687 54.1616 24.687C54.3396 24.687 54.507 24.7563 54.6329 24.8823C54.7588 25.0082 54.8281 25.1755 54.8281 25.3536C54.8281 25.5316 54.7588 25.699 54.6329 25.8249C54.507 25.9509 54.3396 26.0202 54.1616 26.0202C53.9835 26.0202 53.8162 25.9509 53.6902 25.8249C53.5643 25.699 53.495 25.5316 53.495 25.3536C53.495 25.1755 53.5643 25.0081 53.6902 24.8823ZM24.8822 18.3098C25.1422 18.5698 25.5651 18.5697 25.8249 18.3099C26.0848 18.05 26.0848 17.6271 25.8249 17.3672C25.695 17.2373 25.5243 17.1723 25.3536 17.1723C25.1828 17.1723 25.0122 17.2372 24.8822 17.3672C24.6223 17.627 24.6223 18.0499 24.8822 18.3098ZM41.0101 19.7575C40.6426 19.7575 40.3435 19.4584 40.3435 19.0909C40.3435 18.7234 40.6425 18.4244 41.0101 18.4244C41.3777 18.4244 41.6766 18.7234 41.6766 19.0909C41.6766 19.4584 41.3776 19.7575 41.0101 19.7575ZM53.5756 41.0101C53.5756 40.6426 53.2766 40.3435 52.9091 40.3435C52.5415 40.3435 52.2424 40.6425 52.2425 41.0101C52.2425 41.3776 52.5416 41.6766 52.9091 41.6766C53.2766 41.6766 53.5756 41.3777 53.5756 41.0101ZM47.9464 52.8616C47.3746 52.2897 46.5172 52.1755 45.8296 52.5161L41.9747 48.6611C41.7305 48.417 41.596 48.0923 41.596 47.747V45.9798H42.8888C43.1502 45.9798 43.41 45.947 43.6612 45.8824C43.9745 45.8018 44.1632 45.4823 44.0826 45.1689C44.002 44.8555 43.6827 44.6669 43.3691 44.7475C43.2133 44.7876 43.0517 44.8079 42.8888 44.8079H29.1112C28.053 44.8079 27.1921 43.947 27.1921 42.8888V29.1112C27.1921 28.9483 27.2124 28.7867 27.2525 28.631C27.3332 28.3177 27.1445 27.9982 26.8312 27.9175C26.5177 27.8368 26.1983 28.0255 26.1177 28.3388C26.053 28.5899 26.0202 28.8498 26.0202 29.1112V30.404H20.8331C20.5879 29.6768 19.8998 29.1515 19.0909 29.1515C18.0772 29.1515 17.2525 29.9762 17.2525 30.9899C17.2525 32.0037 18.0773 32.8284 19.0909 32.8284C19.8998 32.8284 20.5878 32.303 20.8331 31.5759H26.0202V32.9091H23.4748C23.1512 32.9091 22.8888 33.1714 22.8888 33.495C22.8888 33.8186 23.1512 34.0809 23.4748 34.0809H26.0202V35.4141H16.5859C16.2623 35.4141 16 35.6764 16 36C16 36.3236 16.2623 36.5859 16.5859 36.5859H26.0202V37.9191H23.4748C23.1512 37.9191 22.8888 38.1814 22.8888 38.505C22.8888 38.8286 23.1512 39.0909 23.4748 39.0909H26.0202V40.4241H24.253C23.5946 40.4241 22.9756 40.6805 22.5102 41.146L18.6566 44.9996C18.4055 44.8745 18.1271 44.808 17.8384 44.808C17.3473 44.808 16.8856 44.9992 16.5384 45.3464C16.1913 45.6937 16 46.1554 16 46.6464C16 47.1374 16.1912 47.5991 16.5385 47.9464C16.8857 48.2937 17.3474 48.4848 17.8385 48.4848C18.3296 48.4848 18.7912 48.2936 19.1385 47.9464C19.4858 47.5991 19.677 47.1375 19.677 46.6464C19.677 46.3577 19.6105 46.0793 19.4854 45.8282L23.339 41.9746C23.5831 41.7305 23.9078 41.5959 24.2532 41.5959H26.0204V42.8888C26.0204 44.5931 27.407 45.9797 29.1113 45.9797H30.4041V51.1667C29.677 51.412 29.1516 52.1 29.1516 52.9089C29.1516 53.9227 29.9764 54.7473 30.9901 54.7473C32.0037 54.7473 32.8285 53.9226 32.8285 52.9089C32.8285 52.1 32.3032 51.412 31.576 51.1667V45.9797H32.9091V48.5251C32.9091 48.8487 33.1715 49.111 33.4951 49.111C33.8187 49.111 34.081 48.8487 34.081 48.5251V45.9797H35.4141V55.4141C35.4141 55.7377 35.6764 56 36 56C36.3236 56 36.5859 55.7377 36.5859 55.4141V45.9798H37.9191V48.5252C37.9191 48.8488 38.1814 49.1112 38.505 49.1112C38.8286 49.1112 39.0909 48.8488 39.0909 48.5252V45.9798H40.4241V47.747C40.4241 48.4053 40.6805 49.0243 41.146 49.4898L45.0009 53.3447C44.6604 54.0323 44.7745 54.8896 45.3464 55.4615C45.7048 55.8199 46.1756 55.9991 46.6464 55.9991C47.1172 55.9991 47.588 55.8199 47.9464 55.4615C48.6632 54.7447 48.6632 53.5784 47.9464 52.8616ZM19.0909 31.6565C18.7234 31.6565 18.4244 31.3574 18.4244 30.9899C18.4244 30.6223 18.7234 30.3234 19.0909 30.3234C19.4584 30.3234 19.7575 30.6224 19.7575 30.9899C19.7576 31.3575 19.4585 31.6565 19.0909 31.6565ZM17.8384 47.313C18.0165 47.313 18.1838 47.2437 18.3098 47.1177C18.4357 46.9919 18.505 46.8245 18.505 46.6464C18.505 46.4684 18.4357 46.301 18.3098 46.1751C18.1838 46.0491 18.0165 45.9798 17.8384 45.9798C17.6604 45.9798 17.493 46.0491 17.3671 46.1751C17.2412 46.301 17.1719 46.4684 17.1719 46.6464C17.1719 46.8245 17.2412 46.9918 17.3671 47.1177C17.493 47.2437 17.6604 47.313 17.8384 47.313ZM31.6565 52.9091C31.6565 53.2766 31.3575 53.5756 30.9899 53.5756C30.6223 53.5756 30.3234 53.2766 30.3234 52.9091C30.3234 52.5416 30.6224 52.2425 30.9899 52.2425C31.3574 52.2425 31.6565 52.5416 31.6565 52.9091ZM46.1751 54.6329C46.435 54.8927 46.8579 54.8928 47.1178 54.6329C47.3777 54.373 47.3777 53.9501 47.1178 53.6902C46.9879 53.5603 46.8172 53.4953 46.6465 53.4953C46.4758 53.4953 46.3051 53.5603 46.1751 53.6902C45.9152 53.9501 45.9152 54.373 46.1751 54.6329ZM42.2223 34.4345C42.2223 33.1813 41.3057 32.1198 40.0509 31.7749C40.088 31.6217 40.1087 31.4641 40.1087 31.3031C40.1087 30.1167 39.0556 29.1515 37.7614 29.1515C37.0603 29.1515 36.4305 29.435 36.0001 29.8831C35.5696 29.435 34.9398 29.1515 34.2388 29.1515C32.9445 29.1515 31.8915 30.1167 31.8915 31.3031C31.8915 31.4641 31.9121 31.6217 31.9492 31.7749C30.6945 32.1198 29.7779 33.1812 29.7779 34.4345C29.7779 35.0469 29.9946 35.6247 30.395 36.1019C30.0035 36.6087 29.7779 37.2239 29.7779 37.8789C29.7777 38.8752 30.3101 39.8054 31.1869 40.3824V40.3838C31.1869 41.7429 32.3979 42.8486 33.8865 42.8486C34.742 42.8486 35.5052 42.483 36.0001 41.9145C36.495 42.483 37.2582 42.8486 38.1137 42.8486C39.5462 42.8486 40.7212 41.8244 40.8076 40.5359C41.6777 40.0311 42.2223 39.1468 42.2223 38.192C42.2223 37.4896 41.9228 36.8196 41.4074 36.3132C41.9227 35.8068 42.2223 35.1367 42.2223 34.4345ZM40.1485 36.8313C40.7131 37.1293 41.0502 37.638 41.0502 38.192C41.0502 38.605 40.8582 38.999 40.534 39.2936C40.2259 38.7232 39.6815 38.2691 38.9936 38.053C38.685 37.9561 38.356 38.1277 38.259 38.4364C38.162 38.7452 38.3337 39.0741 38.6423 39.171C39.2397 39.3587 39.6411 39.8462 39.6411 40.3839C39.6411 41.0968 38.9558 41.6768 38.1134 41.6768C37.271 41.6768 36.5857 41.0968 36.5857 40.3839V36.6263C36.5857 35.9134 37.271 35.3335 38.1134 35.3335C38.437 35.3335 38.6993 35.0712 38.6993 34.7476C38.6993 34.424 38.437 34.1616 38.1134 34.1616C37.5466 34.1616 37.0204 34.3223 36.5857 34.5958V33.8473C36.5857 33.5238 36.3234 33.2614 35.9998 33.2614C35.6762 33.2614 35.4138 33.5238 35.4138 33.8473V37.1002C35.2166 36.9765 35.0004 36.8741 34.7665 36.8005C34.4576 36.7035 34.1288 36.8752 34.0319 37.1838C33.9348 37.4926 34.1065 37.8215 34.4152 37.9185C35.0125 38.1063 35.4138 38.5937 35.4138 39.1313V40.3838C35.4138 41.0967 34.7285 41.6767 33.8862 41.6767C33.0438 41.6767 32.3584 41.0967 32.3584 40.3838C32.3584 40.0783 32.488 39.7812 32.7231 39.5475C32.9527 39.3194 32.9538 38.9484 32.7256 38.7188C32.4975 38.4893 32.1266 38.4882 31.897 38.7163C31.7566 38.8559 31.6358 39.0084 31.5353 39.1705C31.1653 38.8205 30.9493 38.3601 30.9493 37.8787C30.9493 37.0106 31.6306 36.248 32.6062 36.0241C32.9216 35.9518 33.1186 35.6374 33.0462 35.322C32.9739 35.0066 32.6595 34.8096 32.3441 34.882C31.9514 34.972 31.5898 35.1224 31.2692 35.3198C31.0613 35.0588 30.9494 34.753 30.9494 34.4343C30.9496 33.553 31.7851 32.8355 32.815 32.8287L32.8219 32.8291C32.8248 32.8293 32.8277 32.8295 32.8306 32.8295C32.9644 32.8295 33.0988 32.784 33.2089 32.6908C33.4335 32.5006 33.4786 32.178 33.3278 31.9352L33.3231 31.9274C33.3203 31.9228 33.3176 31.9182 33.3146 31.9137L33.3104 31.9082L33.3068 31.9034C33.2977 31.8906 33.2884 31.8781 33.2784 31.8661L33.2775 31.865C33.1798 31.7495 33.0631 31.5582 33.0631 31.303C33.0631 30.7628 33.5905 30.3233 34.2385 30.3233C34.8866 30.3233 35.4139 30.7628 35.4139 31.303C35.4139 31.6266 35.6763 31.889 35.9998 31.889C36.3234 31.889 36.5858 31.6266 36.5858 31.303C36.5858 30.7628 37.1131 30.3233 37.7612 30.3233C38.4092 30.3233 38.9366 30.7628 38.9366 31.303C38.9366 31.4474 38.8988 31.5705 38.8487 31.6718C38.5154 31.7033 38.193 31.7838 37.887 31.9129C37.5888 32.0386 37.4491 32.3823 37.5748 32.6805C37.7005 32.9786 38.0441 33.1185 38.3423 32.9927C38.5956 32.8859 38.8681 32.831 39.1523 32.8288L39.1594 32.8292C39.1626 32.8293 39.1659 32.8295 39.1691 32.8295C39.1721 32.8295 39.175 32.8293 39.1779 32.8291L39.1848 32.8287C40.2147 32.8354 41.0502 33.553 41.0502 34.4343C41.0502 34.9883 40.7131 35.4969 40.1485 35.7949C39.9563 35.8963 39.836 36.0958 39.836 36.3131C39.836 36.5305 39.9563 36.7299 40.1485 36.8313Z" fill="white"/>
<defs>
<linearGradient id="paint0_linear_0_3459" x1="-35.8489" y1="35.8489" x2="35.8489" y2="107.547" gradientUnits="userSpaceOnUse">
<stop stop-color="#33D35E"/>
<stop offset="1" stop-color="#2AB6D9"/>
</linearGradient>
</defs>
</svg>

<svg width="72" height="72" fill="none" xmlns="http://www.w3.org/2000/svg"><circle cx="36" cy="36" r="36" fill="url(#a)"/><path fill-rule="evenodd" clip-rule="evenodd" d="M55.414 35.414H45.98v-1.333h2.545a.586.586 0 1 0 0-1.172H45.98v-1.333h1.767c.658 0 1.277-.256 1.743-.722L53.343 27c.251.125.53.192.819.192.49 0 .952-.191 1.3-.538.347-.348.538-.81.538-1.3 0-.491-.191-.953-.538-1.3a1.826 1.826 0 0 0-1.3-.539c-.492 0-.953.191-1.3.538a1.827 1.827 0 0 0-.539 1.3c0 .29.067.568.192.819l-3.854 3.853a1.284 1.284 0 0 1-.914.379H45.98v-1.293a3.095 3.095 0 0 0-3.091-3.09h-1.293v-5.188a1.841 1.841 0 0 0 1.253-1.742 1.84 1.84 0 0 0-1.839-1.838 1.84 1.84 0 0 0-1.838 1.838c0 .809.525 1.497 1.252 1.742v5.187h-1.333v-2.545a.586.586 0 1 0-1.172 0v2.545h-1.333v-9.434a.586.586 0 1 0-1.172 0v9.434h-1.333v-2.545a.586.586 0 1 0-1.172 0v2.545h-1.333v-1.767c0-.658-.256-1.277-.722-1.743l-3.855-3.855a1.84 1.84 0 0 0-.345-2.117 1.84 1.84 0 0 0-2.6 0 1.84 1.84 0 0 0 0 2.6 1.833 1.833 0 0 0 2.117.346l3.854 3.855c.245.244.38.569.38.914v1.767H29.11c-.261 0-.521.033-.772.098a.586.586 0 0 0 .292 1.135c.156-.04.317-.061.48-.061H42.89c1.058 0 1.919.861 1.919 1.92v13.777c0 .163-.02.324-.06.48a.586.586 0 1 0 1.135.291c.064-.25.097-.51.097-.771v-1.293h5.187a1.841 1.841 0 0 0 1.742 1.252 1.84 1.84 0 0 0 1.838-1.838 1.84 1.84 0 0 0-1.838-1.838c-.809 0-1.497.525-1.742 1.252H45.98v-1.333h2.545a.586.586 0 0 0 0-1.172H45.98v-1.333h9.434a.586.586 0 1 0 0-1.172ZM53.69 24.882a.662.662 0 0 1 .472-.195.662.662 0 0 1 .666.667c0 .178-.07.345-.195.47a.662.662 0 0 1-.471.196.662.662 0 0 1-.472-.195.662.662 0 0 1-.195-.471c0-.178.07-.346.195-.472ZM24.882 18.31a.667.667 0 1 0 .943-.945.667.667 0 0 0-.943.945Zm16.128 1.448a.667.667 0 1 1 .002-1.335.667.667 0 0 1-.002 1.335ZM53.576 41.01a.667.667 0 1 0-1.335.002.667.667 0 0 0 1.335-.002Zm-5.63 11.852a1.84 1.84 0 0 0-2.116-.346l-3.855-3.855a1.284 1.284 0 0 1-.379-.914V45.98h1.293c.261 0 .521-.033.772-.098a.586.586 0 0 0-.292-1.134c-.156.04-.317.06-.48.06H29.11c-1.058 0-1.919-.861-1.919-1.92V29.112c0-.163.02-.324.06-.48a.586.586 0 0 0-1.134-.292 3.098 3.098 0 0 0-.098.772v1.293h-5.187a1.841 1.841 0 0 0-1.742-1.253 1.84 1.84 0 0 0-1.838 1.839 1.84 1.84 0 0 0 1.838 1.838c.809 0 1.497-.525 1.742-1.252h5.187v1.333h-2.545a.586.586 0 1 0 0 1.172h2.545v1.333h-9.434a.586.586 0 1 0 0 1.172h9.434v1.333h-2.545a.586.586 0 1 0 0 1.172h2.545v1.333h-1.767c-.658 0-1.277.257-1.743.722L18.657 45a1.83 1.83 0 0 0-.819-.192c-.49 0-.952.191-1.3.538a1.827 1.827 0 0 0-.538 1.3c0 .491.191.953.538 1.3.348.348.81.539 1.3.539.492 0 .953-.191 1.3-.539.348-.347.539-.808.539-1.3a1.83 1.83 0 0 0-.192-.818l3.854-3.853c.244-.245.569-.38.914-.38h1.767v1.294a3.094 3.094 0 0 0 3.091 3.09h1.293v5.188a1.841 1.841 0 0 0-1.252 1.742 1.84 1.84 0 0 0 1.838 1.838 1.84 1.84 0 0 0 1.838-1.838c0-.809-.525-1.497-1.252-1.742V45.98h1.333v2.545a.586.586 0 0 0 1.172 0V45.98h1.333v9.434a.586.586 0 1 0 1.172 0V45.98h1.333v2.545a.586.586 0 1 0 1.172 0V45.98h1.333v1.767c0 .658.257 1.277.722 1.743l3.855 3.855a1.84 1.84 0 0 0 .345 2.117c.359.358.83.537 1.3.537.471 0 .942-.18 1.3-.538a1.84 1.84 0 0 0 0-2.6ZM19.091 31.656a.667.667 0 1 1 .002-1.334.667.667 0 0 1-.002 1.335Zm-1.253 15.657c.178 0 .346-.07.472-.195a.662.662 0 0 0 .195-.472.662.662 0 0 0-.195-.47.662.662 0 0 0-.472-.196.662.662 0 0 0-.47.195.662.662 0 0 0-.196.471c0 .178.07.346.195.472a.662.662 0 0 0 .471.195Zm13.819 5.596a.667.667 0 1 1-1.335-.001.667.667 0 0 1 1.335.001Zm14.518 1.724a.667.667 0 1 0 .943-.945.667.667 0 0 0-.943.945Zm-3.953-20.199c0-1.253-.916-2.314-2.171-2.66a2 2 0 0 0 .058-.47c0-1.187-1.053-2.152-2.348-2.152-.7 0-1.33.283-1.76.731a2.438 2.438 0 0 0-1.762-.732c-1.294 0-2.347.966-2.347 2.152a2 2 0 0 0 .057.472c-1.255.345-2.171 1.406-2.171 2.66 0 .612.217 1.19.617 1.667a2.897 2.897 0 0 0-.617 1.777c0 .996.532 1.926 1.409 2.503v.002c0 1.359 1.21 2.465 2.7 2.465.855 0 1.618-.366 2.113-.934a2.796 2.796 0 0 0 2.114.934c1.432 0 2.607-1.025 2.694-2.313.87-.505 1.414-1.39 1.414-2.344 0-.702-.3-1.372-.815-1.879.516-.506.815-1.176.815-1.879Zm-2.074 2.397c.565.298.902.807.902 1.361 0 .413-.192.807-.516 1.102a2.63 2.63 0 0 0-1.54-1.241.586.586 0 0 0-.352 1.118c.598.188 1 .675 1 1.213 0 .713-.686 1.293-1.529 1.293-.842 0-1.527-.58-1.527-1.293v-3.758c0-.713.685-1.292 1.527-1.292a.586.586 0 1 0 0-1.172c-.566 0-1.093.16-1.527.434v-.749a.586.586 0 0 0-1.172 0V37.1a2.797 2.797 0 0 0-.648-.3.586.586 0 1 0-.35 1.119c.597.187.998.675.998 1.212v1.253c0 .713-.686 1.293-1.528 1.293s-1.528-.58-1.528-1.293c0-.306.13-.603.365-.837a.586.586 0 1 0-.826-.83c-.14.139-.261.291-.362.453-.37-.35-.586-.81-.586-1.291 0-.868.682-1.631 1.657-1.855a.586.586 0 1 0-.262-1.142c-.393.09-.754.24-1.075.438a1.413 1.413 0 0 1-.32-.886c0-.881.836-1.598 1.866-1.605h.016a.583.583 0 0 0 .497-.894l-.005-.008-.008-.013-.005-.006-.003-.005a.61.61 0 0 0-.029-.037v-.001a.87.87 0 0 1-.215-.562c0-.54.527-.98 1.175-.98.649 0 1.176.44 1.176.98a.586.586 0 0 0 1.172 0c0-.54.527-.98 1.175-.98s1.176.44 1.176.98a.824.824 0 0 1-.088.369 3.253 3.253 0 0 0-.962.24.586.586 0 0 0 .455 1.08c.254-.106.526-.161.81-.163h.033c1.03.006 1.865.724 1.865 1.605 0 .554-.337 1.063-.901 1.36a.586.586 0 0 0 0 1.037Z" fill="#fff"/><defs><linearGradient id="a" x1="-35.849" y1="35.849" x2="35.849" y2="107.547" gradientUnits="userSpaceOnUse"><stop stop-color="#33D35E"/><stop offset="1" stop-color="#2AB6D9"/></linearGradient></defs></svg>
